X:2065
T:Tom McElvogue's (Jig 01)
S:Learned by Jeni Westerkamp from other harpers, via Eileen Gannon.
S:We previously called it "Eileen's Jig".
S:Transcribed by Doug Mast.
M:6/8
L:1/8
K:G
|: DGB BAB | GBd dBd | edc dcB | ceg  e/2f/2ga |
| gdB BAB | GBd dBd | edc dcB |1 cAF GFE |2  cAF  G3 :|
|: ded gda | bag agd | e2e aeb | c'ba bge | 
| ded gda | bag aed | e/2f/2ga gdB | BGF G3 :|
|: d2d BdB | GFG Bdg | ecA dBG | F2G ABc |
| d2d BdB | GFG Bdg | ecA dBG | FEF G3 :|
